Catalina-light/actions/16/text-put-on-path.svg

<svg xmlns="http://www.w3.org/2000/svg" viewBox="0 0 16 16">
  <defs id="defs3051">
    <style type="text/css" id="current-color-scheme">
      .ColorScheme-Text {
        color:#363636;
      }
      .ColorScheme-Highlight {
        color:#3daee9;
      }
      </style>
  </defs>
 <path style="fill:currentColor;fill-opacity:1;stroke:none" 
       d="M 12.337891 1.9648438 A 2 2 0 0 0 12.167969 1.9785156 L 12.167969 1.9804688 A 2 2 0 0 0 10.441406 4.21875 A 2 2 0 0 0 12.679688 5.9472656 A 2 2 0 0 0 14.007812 5.1835938 L 13.214844 4.5742188 A 1 1 0 0 1 12.552734 4.9550781 A 1 1 0 0 1 11.431641 4.0917969 A 1 1 0 0 1 12.294922 2.9707031 A 1 1 0 0 1 13.035156 3.171875 L 13.644531 2.3789062 A 2 2 0 0 0 12.337891 1.9648438 z M 3.0332031 3.7207031 L 2.3691406 4.4707031 L 7.6074219 9.1132812 L 8.2714844 8.3652344 L 8.0683594 8.1855469 C 8.4013594 8.0745469 8.7005938 7.8782344 8.9335938 7.6152344 C 9.6665937 6.7882344 9.5906719 5.5249687 8.7636719 4.7929688 C 7.9366719 4.0599687 6.6734063 4.1358906 5.9414062 4.9628906 C 5.7094062 5.2268906 5.5494687 5.546625 5.4804688 5.890625 L 3.0332031 3.7207031 z M 7.3789062 5.2929688 C 7.6344063 5.2775937 7.8945625 5.3599688 8.1015625 5.5429688 C 8.5145625 5.9089688 8.5535 6.539125 8.1875 6.953125 C 7.8215 7.366125 7.1893906 7.4050625 6.7753906 7.0390625 C 6.3623906 6.6730625 6.3234531 6.0409531 6.6894531 5.6269531 C 6.8724531 5.4204531 7.1234062 5.3083438 7.3789062 5.2929688 z M 2.890625 9.4003906 L 2.5195312 10.328125 L 2.7714844 10.429688 A 2 2 0 0 0 2.1503906 11.257812 A 2 2 0 0 0 3.265625 13.857422 A 2 2 0 0 0 5.8652344 12.740234 A 2 2 0 0 0 5.984375 11.710938 L 6.234375 11.810547 L 6.6054688 10.882812 L 4.7460938 10.140625 L 2.890625 9.4003906 z M 4.015625 10.998047 A 1 1 0 0 1 4.3769531 11.070312 A 1 1 0 0 1 4.9355469 12.369141 A 1 1 0 0 1 3.6367188 12.927734 A 1 1 0 0 1 3.078125 11.628906 A 1 1 0 0 1 4.015625 10.998047 z "
       class="ColorScheme-Text"
     />
 <path style="fill:currentColor;fill-opacity:1;stroke:none" 
       d="M 14 7 A 7 7 0 0 0 7 14 L 8 14 A 6 6 0 0 1 14 8 L 14 7 z "
       class="ColorScheme-Highlight"
     />
</svg>

<svg viewBox="0 0 16 16" xmlns="http://www.w3.org/2000/svg">
<defs>
<style id="current-color-scheme" type="text/css">.ColorScheme-Text {
        color:#363636;
      }
      .ColorScheme-Highlight {
        color:#3daee9;
      }</style>
</defs>
<path class="ColorScheme-Text" d="m12.338 1.9648a2 2 0 0 0-0.16992 0.013672v0.0019532a2 2 0 0 0-1.7266 2.2383 2 2 0 0 0 2.2383 1.7285 2 2 0 0 0 1.3281-0.76367l-0.79297-0.60938a1 1 0 0 1-0.66211 0.38086 1 1 0 0 1-1.1211-0.86328 1 1 0 0 1 0.86328-1.1211 1 1 0 0 1 0.74023 0.20117l0.60938-0.79297a2 2 0 0 0-1.3066-0.41406zm-9.3047 1.7559-0.66406 0.75 5.2383 4.6426 0.66406-0.74805-0.20312-0.17969c0.333-0.111 0.63223-0.30731 0.86523-0.57031 0.733-0.827 0.65708-2.0903-0.16992-2.8223-0.827-0.733-2.0903-0.65708-2.8223 0.16992-0.232 0.264-0.39194 0.58373-0.46094 0.92773l-2.4473-2.1699zm4.3457 1.5723c0.2555-0.015375 0.51566 0.067 0.72266 0.25 0.413 0.366 0.45194 0.99616 0.085938 1.4102-0.366 0.413-0.99811 0.45194-1.4121 0.085938-0.413-0.366-0.45194-0.99811-0.085938-1.4121 0.183-0.2065 0.43395-0.31861 0.68945-0.33398zm-4.4883 4.1074-0.37109 0.92773 0.25195 0.10156a2 2 0 0 0-0.62109 0.82812 2 2 0 0 0 1.1152 2.5996 2 2 0 0 0 2.5996-1.1172 2 2 0 0 0 0.11914-1.0293l0.25 0.099609 0.37109-0.92774-1.8594-0.74219-1.8555-0.74023zm1.125 1.5977a1 1 0 0 1 0.36133 0.072265 1 1 0 0 1 0.55859 1.2988 1 1 0 0 1-1.2988 0.55859 1 1 0 0 1-0.55859-1.2988 1 1 0 0 1 0.9375-0.63086z" fill="currentColor"/>
<path class="ColorScheme-Highlight" d="m14 7a7 7 0 0 0-7 7h1a6 6 0 0 1 6-6v-1z" fill="currentColor"/>
</svg>
